svgs/1F48E.svg

<svg xmlns="http://www.w3.org/2000/svg" xmlns:xlink="http://www.w3.org/1999/xlink" preserveAspectRatio="none" viewBox="0 0 72 72"><defs><path id="a" fill="#E1F5FE" d="M42.3 29.85L44.15 1.8l-42.5 8.7L42.3 29.85z"/><path id="b" fill="#81D4FA" d="M20.75 68.95l21.55-39.1L1.65 10.5l19.1 58.45z"/><path id="c" fill="#64B5F6" d="M20.75 68.95l43.55-5.2-22-33.9-21.55 39.1z"/><path id="d" fill="#0288D1" d="M126.2 83.85L98.15 85.7l19.35 40.65 8.7-42.5z"/><path id="e" fill="#81D4FA" d="M98.15 85.7l-39.1 21.55 58.45 19.1L98.15 85.7z"/><path id="f" fill="#E1F5FE" d="M64.3 63.75l-5.25 43.5 39.1-21.55L64.3 63.75z"/><path id="g" fill="#B2EBF2" d="M64.3 63.75l-43.55 5.2 38.3 38.3 5.25-43.5z"/><path id="h" fill="#B3E5FC" d="M98.15 85.7l28.05-1.85-9.8-31.8L75.9 11.6 44.15 1.8 42.3 29.85l22 33.9L98.15 85.7z"/><path id="i" fill="#1E88E5" d="M20.75 68.95L1.65 10.5l.55 115.3 18.55-56.85z"/><path id="j" fill="#B3E5FC" d="M59.05 107.25L2.2 125.8l115.3.55-58.45-19.1z"/><path id="k" fill="#E1F5FE" d="M2.2 125.8l56.85-18.55-38.3-38.3L2.2 125.8z"/></defs><use transform="rotate(-45 31.488 16.507) scale(.42459)" xlink:href="#a"/><use transform="rotate(-45 31.488 16.507) scale(.42459)" xlink:href="#b"/><use transform="rotate(-45 31.488 16.507) scale(.42459)" xlink:href="#c"/><use transform="rotate(-45 31.488 16.507) scale(.42459)" xlink:href="#d"/><use transform="rotate(-45 31.488 16.507) scale(.42459)" xlink:href="#e"/><use transform="rotate(-45 31.488 16.507) scale(.42459)" xlink:href="#f"/><use transform="rotate(-45 31.488 16.507) scale(.42459)" xlink:href="#g"/><use transform="rotate(-45 31.488 16.507) scale(.42459)" xlink:href="#h"/><use transform="rotate(-45 31.488 16.507) scale(.42459)" xlink:href="#i"/><use transform="rotate(-45 31.488 16.507) scale(.42459)" xlink:href="#j"/><use transform="rotate(-45 31.488 16.507) scale(.42459)" xlink:href="#k"/></svg>

<svg xmlns="http://www.w3.org/2000/svg" version="1.1" xmlns:xlink="http://www.w3.org/1999/xlink" preserveAspectRatio="none" x="0px" y="0px" width="72px" height="72px" viewBox="0 0 72 72">
<defs>
<g id="Layer0_0_MEMBER_0_MEMBER_0_FILL">
<path fill="#E1F5FE" stroke="none" d="
M 42.3 29.85
L 44.15 1.8 1.65 10.5 42.3 29.85 Z"/>
</g>

<g id="Layer0_0_MEMBER_0_MEMBER_1_FILL">
<path fill="#81D4FA" stroke="none" d="
M 20.75 68.95
L 42.3 29.85 1.65 10.5 20.75 68.95 Z"/>
</g>

<g id="Layer0_0_MEMBER_0_MEMBER_2_FILL">
<path fill="#64B5F6" stroke="none" d="
M 20.75 68.95
L 64.3 63.75 42.3 29.85 20.75 68.95 Z"/>
</g>

<g id="Layer0_0_MEMBER_0_MEMBER_3_FILL">
<path fill="#0288D1" stroke="none" d="
M 126.2 83.85
L 98.15 85.7 117.5 126.35 126.2 83.85 Z"/>
</g>

<g id="Layer0_0_MEMBER_0_MEMBER_4_FILL">
<path fill="#81D4FA" stroke="none" d="
M 98.15 85.7
L 59.05 107.25 117.5 126.35 98.15 85.7 Z"/>
</g>

<g id="Layer0_0_MEMBER_0_MEMBER_5_FILL">
<path fill="#E1F5FE" stroke="none" d="
M 64.3 63.75
L 59.05 107.25 98.15 85.7 64.3 63.75 Z"/>
</g>

<g id="Layer0_0_MEMBER_0_MEMBER_6_FILL">
<path fill="#B2EBF2" stroke="none" d="
M 64.3 63.75
L 20.75 68.95 59.05 107.25 64.3 63.75 Z"/>
</g>

<g id="Layer0_0_MEMBER_0_MEMBER_7_FILL">
<path fill="#B3E5FC" stroke="none" d="
M 98.15 85.7
L 126.2 83.85 116.4 52.05 75.9 11.6 44.15 1.8 42.3 29.85 64.3 63.75 98.15 85.7 Z"/>
</g>

<g id="Layer0_0_MEMBER_0_MEMBER_8_FILL">
<path fill="#1E88E5" stroke="none" d="
M 20.75 68.95
L 1.65 10.5 2.2 125.8 20.75 68.95 Z"/>
</g>

<g id="Layer0_0_MEMBER_0_MEMBER_9_FILL">
<path fill="#B3E5FC" stroke="none" d="
M 59.05 107.25
L 2.2 125.8 117.5 126.35 59.05 107.25 Z"/>
</g>

<g id="Layer0_0_MEMBER_0_MEMBER_10_FILL">
<path fill="#E1F5FE" stroke="none" d="
M 2.2 125.8
L 59.05 107.25 20.75 68.95 2.2 125.8 Z"/>
</g>
</defs>

<g id="Layer_1">
<g transform="matrix( 0.30023193359375, -0.30023193359375, 0.30023193359375, 0.30023193359375, -2.45,27.1) ">
<use xlink:href="#Layer0_0_MEMBER_0_MEMBER_0_FILL"/>
</g>

<g transform="matrix( 0.30023193359375, -0.30023193359375, 0.30023193359375, 0.30023193359375, -2.45,27.1) ">
<use xlink:href="#Layer0_0_MEMBER_0_MEMBER_1_FILL"/>
</g>

<g transform="matrix( 0.30023193359375, -0.30023193359375, 0.30023193359375, 0.30023193359375, -2.45,27.1) ">
<use xlink:href="#Layer0_0_MEMBER_0_MEMBER_2_FILL"/>
</g>

<g transform="matrix( 0.30023193359375, -0.30023193359375, 0.30023193359375, 0.30023193359375, -2.45,27.1) ">
<use xlink:href="#Layer0_0_MEMBER_0_MEMBER_3_FILL"/>
</g>

<g transform="matrix( 0.30023193359375, -0.30023193359375, 0.30023193359375, 0.30023193359375, -2.45,27.1) ">
<use xlink:href="#Layer0_0_MEMBER_0_MEMBER_4_FILL"/>
</g>

<g transform="matrix( 0.30023193359375, -0.30023193359375, 0.30023193359375, 0.30023193359375, -2.45,27.1) ">
<use xlink:href="#Layer0_0_MEMBER_0_MEMBER_5_FILL"/>
</g>

<g transform="matrix( 0.30023193359375, -0.30023193359375, 0.30023193359375, 0.30023193359375, -2.45,27.1) ">
<use xlink:href="#Layer0_0_MEMBER_0_MEMBER_6_FILL"/>
</g>

<g transform="matrix( 0.30023193359375, -0.30023193359375, 0.30023193359375, 0.30023193359375, -2.45,27.1) ">
<use xlink:href="#Layer0_0_MEMBER_0_MEMBER_7_FILL"/>
</g>

<g transform="matrix( 0.30023193359375, -0.30023193359375, 0.30023193359375, 0.30023193359375, -2.45,27.1) ">
<use xlink:href="#Layer0_0_MEMBER_0_MEMBER_8_FILL"/>
</g>

<g transform="matrix( 0.30023193359375, -0.30023193359375, 0.30023193359375, 0.30023193359375, -2.45,27.1) ">
<use xlink:href="#Layer0_0_MEMBER_0_MEMBER_9_FILL"/>
</g>

<g transform="matrix( 0.30023193359375, -0.30023193359375, 0.30023193359375, 0.30023193359375, -2.45,27.1) ">
<use xlink:href="#Layer0_0_MEMBER_0_MEMBER_10_FILL"/>
</g>
</g>
</svg>
